src/icons/outline/user-cog.svg

<svg xmlns="http://www.w3.org/2000/svg" stroke-linecap="round" stroke-linejoin="round" stroke-width="2" viewBox="0 0 24 24"><path d="M16 21v-2a4 4 0 0 0-4-4H5a4 4 0 0 0-4 4v2"/><circle cx="8.5" cy="7" r="4"/><circle cx="20" cy="11" r="2"/><path d="M22 11h1m-6 0h1m3 1.7.9.5m-3.8-4.4.9.5m2 0 .9-.5m-3.8 4.4.9-.5m1 .3v1m0-6v1"/></svg>

<?xml version="1.0" encoding="UTF-8"?>
<svg id="Layer_1" xmlns="http://www.w3.org/2000/svg" version="1.1" viewBox="0 0 24 24">
  <!-- Generator: Adobe Illustrator 29.6.0, SVG Export Plug-In . SVG Version: 2.1.1 Build 207)  -->
  <defs>
    <style>
      .st0 {
        fill: none;
        stroke: #000;
        stroke-miterlimit: 10;
      }
    </style>
  </defs>
  <path class="st0" d="M16,21v-2c0-2.2-1.8-4-4-4h-7c-2.2,0-4,1.8-4,4v2"/>
  <circle class="st0" cx="8.5" cy="7" r="4"/>
  <circle class="st0" cx="20" cy="11" r="2"/>
  <path class="st0" d="M22,11h1M17,11h1M21,12.7l.9.5M18.1,8.8l.9.5M21,9.3l.9-.5M18.1,13.2l.9-.5M20,13v1M20,8v1"/>
</svg>
